X:62
T:Ladgh O'Lignai
R:polka
H:See also #92
D:Paur McLLO sopeo", #19, #26, #17, #26
M:4/4
K:D
DF|:GE GEE|Bd dB|AF GE|ED ED|1 AF C2:|2 DEE D2D|B>BG AG|(3BAB GB|e2 ce|d2 dA|
B2 GB|gB dc|BA A2|
b
====== T = 2, seed = 1 ======
<start>
